src/icons/5x2.svg

<svg xmlns="http://www.w3.org/2000/svg" width="512" height="512" viewBox="0 0 512 512">
    <path d="M269.6 367.2H416v42.3H269.6v-42.3zm-173.6 0h146.4v42.3H96v-42.3zm173.6-69.4H416v42.3H269.6v-42.3zm-173.6 0h146.4v42.3H96v-42.3zm173.6-69.5H416v42.3H269.6v-42.3zm-173.6 0h146.4v42.3H96v-42.3zm173.6-69.4H416v42.3H269.6v-42.3zm-173.6 0h146.4v42.3H96v-42.3zm173.6-69.4H416v42.3H269.6V89.5zM96 89.5h146.4v42.3H96V89.5z"/>
</svg>

<?xml version="1.0" encoding="UTF-8"?>
<svg width="512px" height="512px" viewBox="0 0 512 512" version="1.1" xmlns="http://www.w3.org/2000/svg" xmlns:xlink="http://www.w3.org/1999/xlink">
    <!-- Generator: Sketch 62 (91390) - https://sketch.com -->
    <title>5x2</title>
    <desc>Created with Sketch.</desc>
    <g id="5x2" stroke="none" stroke-width="1" fill="none" fill-rule="evenodd">
        <path d="M269.6,367.2 L416,367.2 L416,409.5 L269.6,409.5 L269.6,367.2 Z M96,367.2 L242.4,367.2 L242.4,409.5 L96,409.5 L96,367.2 Z M269.6,297.8 L416,297.8 L416,340.1 L269.6,340.1 L269.6,297.8 L269.6,297.8 Z M96,297.8 L242.4,297.8 L242.4,340.1 L96,340.1 L96,297.8 L96,297.8 Z M269.6,228.3 L416,228.3 L416,270.6 L269.6,270.6 L269.6,228.3 L269.6,228.3 Z M96,228.3 L242.4,228.3 L242.4,270.6 L96,270.6 L96,228.3 L96,228.3 Z M269.6,158.9 L416,158.9 L416,201.2 L269.6,201.2 L269.6,158.9 L269.6,158.9 Z M96,158.9 L242.4,158.9 L242.4,201.2 L96,201.2 L96,158.9 L96,158.9 Z M269.6,89.5 L416,89.5 L416,131.8 L269.6,131.8 L269.6,89.5 Z M96,89.5 L242.4,89.5 L242.4,131.8 L96,131.8 L96,89.5 Z" id="Shape" fill="#000000" fill-rule="nonzero"></path>
    </g>
</svg>
